src/icons/save-all.svg

<svg width="16" height="16" viewBox="0 0 16 16" fill="none" xmlns="http://www.w3.org/2000/svg">
<path d="M14.85 2.65002L13.35 1.15002L13 1H4.47998L3.97998 1.5V4H1.5L1 4.5V14.5L1.5 15H11.5L12 14.5V12H14.5L15 11.5V3L14.85 2.65002ZM11 14H2V5H3V8.06995H9V5H9.79004L11 6.20996V14ZM6 7V5H8V7H6ZM14 11H12V6L11.85 5.65002L10.35 4.15002L10 4H5V2H12.8101L14.02 3.20996L14 11Z" fill="#C5C5C5"/>
</svg>

<svg width="16" height="16" xmlns="http://www.w3.org/2000/svg"><path d="M14.85 2.65l-1.5-1.5L13 1H4.48l-.5.5V4H1.5l-.5.5v10l.5.5h10l.5-.5V12h2.5l.5-.5V3l-.15-.35zM11 14H2V5h1v3.07h6V5h.79L11 6.21V14zM6 7V5h2v2H6zm8 4h-2V6l-.15-.35-1.5-1.5L10 4H5V2h7.81l1.21 1.21L14 11z"/></svg>
